src/assets/img/firebaseIcon.svg

<svg width="45" height="60" viewBox="0 0 45 60" fill="none" xmlns="http://www.w3.org/2000/svg">
<path d="M2.18993 39.1719L8.12133 1.16324C8.32586 -0.132123 10.0644 -0.43892 10.678 0.720089L17.0525 12.6511L2.18993 39.1719ZM44.3574 48.4099L38.6987 13.401C38.5283 12.3102 37.1647 11.867 36.3807 12.6511L0.724121 48.4099L20.4614 59.4887C21.6886 60.1704 23.2225 60.1704 24.4497 59.4887L44.3574 48.4099ZM28.3358 17.8666L23.768 9.17404C23.2566 8.18547 21.859 8.18547 21.3477 9.17404L1.26954 44.967L28.3358 17.8666Z" fill="white"/>
</svg>

<svg width="45" height="60" fill="none" xmlns="http://www.w3.org/2000/svg"><path d="M2.19 39.172 8.12 1.163C8.326-.132 10.064-.439 10.678.72l6.374 11.931L2.19 39.171Zm42.167 9.238L38.7 13.4c-.17-1.09-1.534-1.534-2.318-.75L.724 48.41l19.737 11.079a4.145 4.145 0 0 0 3.989 0l19.907-11.08ZM28.336 17.867l-4.568-8.693a1.358 1.358 0 0 0-2.42 0L1.27 44.967l27.066-27.1Z" fill="#fff"/></svg>
